X: 1
M: C|
L: 1/8
K: G
c |\
|: g |\
e/f/g de BG dB | (e/f/g) de A=FcA |\
(3efg de BG dB | (3ABc =FA =fA A :|
|: c |\
|: g |\
(e/f/g) (e/f/g) BGBG | (e/f/g) (e/f/g) A=FAF |\
(e/f/g) (e/f/g) BGBG | A/B/c =FA =fA A :|


